!!!OTL-incipit: MAEDCHEN, WARUM WEINEST DU
!!!ARE: Europa, Mitteleuropa, Deutschland
!!!SCT: Z0260
!!!TXL: @@DE
!!!YEM: Copyright 1995, estate of Helmut Schaffrath.
**kern	**text
*ICvox	*
*M2/4	*
*k[f#]	*
*G:	*
!LO:TX:a:t=Deutſch.	!
{8b	Mädchen,
8b	.
8b	warum
8b	.
=1	=1
8b	weineſt
8dd	.
4dd	du,
=2	=2
8a	wei-
8cc	-neſt
4cc	du,
=3	=3
8b	wei-
8dd	-neſt
4dd}	du,
=4	=4
{8b	Mäd-
8b	-chen,
8b	war-
8b	-um
=5	=5
8b	wei-
8dd	-neſt
4dd	du,
=6	=6
8a	weineſt
8cc	.
8cc	du
8cc	ſo
=7	=7
4b	ſehr?
4r}	.
=8	=8
{8a	Wei-
8cc	-neſt,
8cc	daß
8cc	ich
=9	=9
8b	von
8gg	dir
8dd	ge-
8dd	-he,
=10	=10
8a	daß
8cc	ich
8cc	dich
8cc	nicht
=11	=11
8b	wie-
8gg	-der
8dd	ſe-
8dd}	-he,
=12	=12
{8b	Mädchen,
8b	.
8b	darum
8b	.
=13	=13
8b	weineſt
8dd	.
4dd	du,
=14	=14
8a	wei-
8cc	-ne
8cc	nicht
8cc	ſo
=15	=15
16ccqq	.
4b	ſehr!
4r}	.
==	==
!!!AGN: lyrisches Lied, Romanze
!!!ONB: ESAC (Essen Associative Code) Database: ZUCCAL
!!!AMT: simple duple
!!!AIN: vox
!!!EED: Helmut Schaffrath
!!!EEV: 1.0
!!!GTL: IV. Lyrische Lieder.
!!!URL-scan: https://www.digitale-sammlungen.de/de/view/bsb11160571?page=477
!!!ENC: Anna Maria Matuszewska
!!!EEV: 2025/01/30
*-	*-
